apps/scalable/edit-find.svg

<svg xmlns="http://www.w3.org/2000/svg" style="isolation:isolate" width="256" height="256"><defs><filter id="a" width="270.648" height="254.338" x="-7.32" y="2.95" filterUnits="userSpaceOnUse"><feGaussianBlur xmlns="http://www.w3.org/2000/svg" in="SourceGraphic" stdDeviation="4.294"/><feOffset xmlns="http://www.w3.org/2000/svg" dy="4" result="pf_100_offsetBlur"/><feFlood xmlns="http://www.w3.org/2000/svg" flood-opacity=".4"/><feComposite xmlns="http://www.w3.org/2000/svg" in2="pf_100_offsetBlur" operator="in" result="pf_100_dropShadow"/><feBlend xmlns="http://www.w3.org/2000/svg" in="SourceGraphic" in2="pf_100_dropShadow"/></filter></defs><g filter="url(#a)"><linearGradient id="b" x1=".25" x2=".75" y1=".036" y2=".902" gradientTransform="matrix(244.648 0 0 228.338 5.676 11.947)" gradientUnits="userSpaceOnUse"><stop offset="0%" stop-color="#2f5fdd"/><stop offset="100%" stop-color="#5884f4"/></linearGradient><path fill="url(#b)" d="M165.685 11.947c74.055 0 84.639 10.557 84.639 84.544v59.251c0 73.986-10.584 84.543-84.639 84.543h-75.37c-74.055 0-84.639-10.557-84.639-84.543V96.491c0-73.987 10.584-84.544 84.639-84.544h75.37z"/></g><g opacity=".4"><linearGradient id="c" x1=".517" x2=".517" y2="1"><stop offset="0%" stop-color="#fff"/><stop offset="12.5%" stop-opacity=".098" stop-color="#fff"/><stop offset="92.5%" stop-opacity=".098"/><stop offset="100%" stop-opacity=".498"/></linearGradient><path fill="none" stroke="url(#c)" stroke-linecap="round" stroke-linejoin="round" stroke-width="4.077" d="M165.685 11.947c74.055 0 84.639 10.557 84.639 84.544v59.251c0 73.986-10.584 84.543-84.639 84.543h-75.37c-74.055 0-84.639-10.557-84.639-84.543V96.491c0-73.987 10.584-84.544 84.639-84.544h75.37z" vector-effect="non-scaling-stroke"/></g><linearGradient id="d" x2=".667" y1=".5" y2="1.245" gradientTransform="matrix(167.79 0 0 160 44.105 48)" gradientUnits="userSpaceOnUse"><stop offset="0%" stop-color="#e2e2e2"/><stop offset="94.667%" stop-color="#fbfbfb"/></linearGradient><path fill="url(#d)" d="M197.909 207.908a6.61 6.61 0 0 1-3.975-2.083c-2.375-2.547-6.279-10.032-9.484-18.178-1.799-4.573-5.242-14.642-5.242-15.329 0-.217 2.272-1.717 5.048-3.334l5.048-2.94.793.744c3.134 2.942 12.163 16.428 17.426 26.03 2.106 3.84 2.317 4.388 2.309 5.971-.011 2.109-.675 3.582-2.551 5.669-2.249 2.501-6.126 3.929-9.372 3.45zm-150.028-2.506c.095-.258 1.631-7.187 3.414-15.398 1.783-8.211 3.281-14.979 3.328-15.04.16-.207 16.29 11.108 16.287 11.425-.002.172-4.664 4.18-10.361 8.905-12.826 10.639-12.879 10.681-12.668 10.108zm17.082-28.969c-4.494-3.108-8.136-5.782-8.092-5.942.104-.383 38.715-65.741 39.034-66.074.175-.183 17.047 10.425 17.837 11.216.171.171-39.975 66.304-40.293 66.378-.173.04-3.992-2.47-8.486-5.578zm105.972-17.272c-3.081-5.194-5.557-9.477-5.5-9.516.548-.387 12.223-7.099 12.348-7.099.194 0 9.994 19.522 9.851 19.622-1.264.882-10.619 6.46-10.817 6.451-.154-.007-2.801-4.263-5.882-9.458zm-126.707-.979c-.107-.907-.153-8.222-.102-16.254l.094-14.604 16.186.101c8.903.051 16.224.132 16.269.177.046.04-4.238 7.315-9.52 16.157l-9.603 16.077H44.423l-.195-1.654zm48.55 1.184c0-.08 4.396-7.367 9.77-16.186l9.77-16.035h34.679l9.27 15.439c5.098 8.492 9.451 15.775 9.672 16.186l.403.747H129.56c-20.23 0-36.782-.07-36.782-.151zm94.617-6.842a8522.009 8522.009 0 0 0-7.81-16.028l-4.414-9.036 11.997-.001c6.599-.001 14.862-.091 18.362-.207l6.365-.206v32.472H190.79l-3.395-6.993v-.001zm-26.787-10.371c-7.107-11.197-14.346-24.351-23.046-41.88-6.902-13.905-13.544-28.28-16.285-35.246-3.971-10.092-4.919-16.365-2.562-16.956 3.77-.947 11.15 7.617 21.655 25.128 8.229 13.718 21.397 37.69 31.445 57.246 1.865 3.63 3.723 7.188 4.13 7.905l.739 1.305-6.262 3.645c-3.445 2.005-6.377 3.646-6.517 3.646-.141 0-1.624-2.157-3.297-4.793zm-54.403-34.694l-8.731-5.755.825-1.306c.453-.718 2.74-4.364 5.081-8.101 2.342-3.738 4.294-6.84 4.339-6.894.045-.051 3.977 2.466 8.739 5.601l8.658 5.699-1.288 2.1c-.709 1.154-2.841 4.645-4.739 7.756-1.897 3.112-3.608 5.882-3.802 6.157-.303.431-1.549-.29-9.082-5.257zm11.143-18.687c-4.525-2.955-8.227-5.513-8.227-5.685 0-1.246 3.741-4.715 5.584-5.178 3.033-.76 8.008 1.185 10.779 4.217 2.142 2.343 2.611 3.489 2.411 5.889-.151 1.811-1.627 6.13-2.095 6.13-.124 0-3.928-2.418-8.452-5.373z"/><g filter="url(#e)"><path fill="#888" d="M155.479 163.245l8.48-8.49 12 12-8.48 8.49-12-12z"/><path fill="#3B3B3B" d="M162.059 172.655l11.32-11.31 31.5 31.5-11.32 11.31-31.5-31.5z"/><path fill="#FFF" fill-opacity=".543" d="M55.943 115c0-33.077 26.855-59.932 59.932-59.932S175.807 81.923 175.807 115c0 33.078-26.855 59.933-59.932 59.933S55.943 148.078 55.943 115z"/><path fill="#666" fill-rule="evenodd" d="M51.879 115.005c-.01-8.56 1.7-17.03 5.03-24.91 3.22-7.6 7.88-14.51 13.72-20.34a64.053 64.053 0 0 1 20.34-13.72 63.796 63.796 0 0 1 24.91-5.03c8.55-.01 17.02 1.7 24.9 5.03 7.6 3.22 14.51 7.88 20.34 13.72a64.053 64.053 0 0 1 13.72 20.34 63.986 63.986 0 0 1 5.04 24.91c0 8.55-1.71 17.02-5.04 24.9a64.053 64.053 0 0 1-13.72 20.34 64.053 64.053 0 0 1-20.34 13.72 63.973 63.973 0 0 1-24.9 5.04c-8.56 0-17.03-1.71-24.91-5.04a64.053 64.053 0 0 1-20.34-13.72 64.053 64.053 0 0 1-13.72-20.34 63.783 63.783 0 0 1-5.03-24.9zm8.13 0c0-7.47 1.49-14.86 4.39-21.74a56.23 56.23 0 0 1 11.98-17.76 56.23 56.23 0 0 1 17.76-11.98 55.96 55.96 0 0 1 21.74-4.39c7.46 0 14.85 1.49 21.73 4.39a56.005 56.005 0 0 1 17.76 11.98c5.1 5.1 9.17 11.13 11.98 17.76a55.78 55.78 0 0 1 4.39 21.74c.01 7.46-1.49 14.85-4.39 21.73a55.84 55.84 0 0 1-11.98 17.76 55.84 55.84 0 0 1-17.76 11.98c-6.88 2.9-14.27 4.4-21.73 4.39a55.78 55.78 0 0 1-21.74-4.39 56.063 56.063 0 0 1-17.76-11.98 56.005 56.005 0 0 1-11.98-17.76 55.948 55.948 0 0 1-4.39-21.73z"/></g><defs><filter id="e" width="213" height="213.15" x="21.88" y="25" filterUnits="userSpaceOnUse"><feGaussianBlur xmlns="http://www.w3.org/2000/svg" in="SourceGraphic" stdDeviation="4.294"/><feOffset xmlns="http://www.w3.org/2000/svg" dy="4" result="pf_100_offsetBlur"/><feFlood xmlns="http://www.w3.org/2000/svg" flood-opacity=".4"/><feComposite xmlns="http://www.w3.org/2000/svg" in2="pf_100_offsetBlur" operator="in" result="pf_100_dropShadow"/><feBlend xmlns="http://www.w3.org/2000/svg" in="SourceGraphic" in2="pf_100_dropShadow"/></filter></defs></svg>

<svg xmlns="http://www.w3.org/2000/svg" style="isolation:isolate" width="256" height="256" viewBox="0 0 256 256">
 <defs>
  <filter id="4jzDON8pr2Ai6N5uHeMW8HTdnQebUwi9" width="270.648" height="254.338" x="-7.32" y="2.95" filterUnits="userSpaceOnUse">
   <feGaussianBlur xmlns="http://www.w3.org/2000/svg" in="SourceGraphic" stdDeviation="4.294"/>
   <feOffset xmlns="http://www.w3.org/2000/svg" dx="0" dy="4" result="pf_100_offsetBlur"/>
   <feFlood xmlns="http://www.w3.org/2000/svg" flood-opacity=".4"/>
   <feComposite xmlns="http://www.w3.org/2000/svg" in2="pf_100_offsetBlur" operator="in" result="pf_100_dropShadow"/>
   <feBlend xmlns="http://www.w3.org/2000/svg" in="SourceGraphic" in2="pf_100_dropShadow" mode="normal"/>
  </filter>
 </defs>
 <g filter="url(#4jzDON8pr2Ai6N5uHeMW8HTdnQebUwi9)">
  <linearGradient id="_lgradient_208" x1=".25" x2=".75" y1=".036" y2=".902" gradientTransform="matrix(244.648,0,0,228.338,5.676,11.947)" gradientUnits="userSpaceOnUse">
   <stop offset="0%" style="stop-color:rgb(47,95,221)"/>
   <stop offset="100%" style="stop-color:rgb(88,132,244)"/>
  </linearGradient>
  <path fill="url(#_lgradient_208)" d="M 165.685 11.947 C 239.74 11.947 250.324 22.504 250.324 96.491 L 250.324 155.742 C 250.324 229.728 239.74 240.285 165.685 240.285 L 90.315 240.285 C 16.26 240.285 5.676 229.728 5.676 155.742 L 5.676 96.491 C 5.676 22.504 16.26 11.947 90.315 11.947 L 165.685 11.947 Z"/>
 </g>
 <g opacity=".4">
  <linearGradient id="_lgradient_209" x1=".517" x2=".517" y1="0" y2="1">
   <stop offset="0%" style="stop-color:rgb(255,255,255)"/>
   <stop offset="12.5%" stop-opacity=".098" style="stop-color:rgb(255,255,255)"/>
   <stop offset="92.5%" stop-opacity=".098" style="stop-color:rgb(0,0,0)"/>
   <stop offset="100%" stop-opacity=".498" style="stop-color:rgb(0,0,0)"/>
  </linearGradient>
  <path fill="none" stroke="url(#_lgradient_209)" stroke-linecap="round" stroke-linejoin="round" stroke-width="4.077" d="M 165.685 11.947 C 239.74 11.947 250.324 22.504 250.324 96.491 L 250.324 155.742 C 250.324 229.728 239.74 240.285 165.685 240.285 L 90.315 240.285 C 16.26 240.285 5.676 229.728 5.676 155.742 L 5.676 96.491 C 5.676 22.504 16.26 11.947 90.315 11.947 L 165.685 11.947 Z" vector-effect="non-scaling-stroke"/>
 </g>
 <g>
  <linearGradient id="_lgradient_210" x1="0" x2=".667" y1=".5" y2="1.245" gradientTransform="matrix(167.79,0,0,160,44.105,48)" gradientUnits="userSpaceOnUse">
   <stop offset="0%" style="stop-color:rgb(226,226,226)"/>
   <stop offset="94.667%" style="stop-color:rgb(251,251,251)"/>
  </linearGradient>
  <path fill="url(#_lgradient_210)" d="M 197.909 207.908 C 196.34 207.677 195.011 206.98 193.934 205.825 C 191.559 203.278 187.655 195.793 184.45 187.647 C 182.651 183.074 179.208 173.005 179.208 172.318 C 179.208 172.101 181.48 170.601 184.256 168.984 L 189.304 166.044 L 190.097 166.788 C 193.231 169.73 202.26 183.216 207.523 192.818 C 209.629 196.658 209.84 197.206 209.832 198.789 C 209.821 200.898 209.157 202.371 207.281 204.458 C 205.032 206.959 201.155 208.387 197.909 207.908 L 197.909 207.908 Z M 47.881 205.402 C 47.976 205.144 49.512 198.215 51.295 190.004 C 53.078 181.793 54.576 175.025 54.623 174.964 C 54.783 174.757 70.913 186.072 70.91 186.389 C 70.908 186.561 66.246 190.569 60.549 195.294 C 47.723 205.933 47.67 205.975 47.881 205.402 Z M 64.963 176.433 C 60.469 173.325 56.827 170.651 56.871 170.491 C 56.975 170.108 95.586 104.75 95.905 104.417 C 96.08 104.234 112.952 114.842 113.742 115.633 C 113.913 115.804 73.767 181.937 73.449 182.011 C 73.276 182.051 69.457 179.541 64.963 176.433 Z M 170.935 159.161 C 167.854 153.967 165.378 149.684 165.435 149.645 C 165.983 149.258 177.658 142.546 177.783 142.546 C 177.977 142.546 187.777 162.068 187.634 162.168 C 186.37 163.05 177.015 168.628 176.817 168.619 C 176.663 168.612 174.016 164.356 170.935 159.161 L 170.935 159.161 Z M 44.228 158.182 C 44.121 157.275 44.075 149.96 44.126 141.928 L 44.22 127.324 L 60.406 127.425 C 69.309 127.476 76.63 127.557 76.675 127.602 C 76.721 127.642 72.437 134.917 67.155 143.759 L 57.552 159.836 L 50.987 159.836 L 44.423 159.836 L 44.228 158.182 Z M 92.778 159.366 C 92.778 159.286 97.174 151.999 102.548 143.18 L 112.318 127.145 L 129.658 127.145 L 146.997 127.145 L 156.267 142.584 C 161.365 151.076 165.718 158.359 165.939 158.77 L 166.342 159.517 L 129.56 159.517 C 109.33 159.517 92.778 159.447 92.778 159.366 L 92.778 159.366 Z M 187.395 152.524 C 185.528 148.678 182.013 141.465 179.585 136.496 L 175.171 127.46 L 187.168 127.459 C 193.767 127.458 202.03 127.368 205.53 127.252 L 211.895 127.046 L 211.895 143.282 L 211.895 159.518 L 201.342 159.518 L 190.79 159.518 L 187.395 152.525 L 187.395 152.524 Z M 160.608 142.153 C 153.501 130.956 146.262 117.802 137.562 100.273 C 130.66 86.368 124.018 71.993 121.277 65.027 C 117.306 54.935 116.358 48.662 118.715 48.071 C 122.485 47.124 129.865 55.688 140.37 73.199 C 148.599 86.917 161.767 110.889 171.815 130.445 C 173.68 134.075 175.538 137.633 175.945 138.35 L 176.684 139.655 L 170.422 143.3 C 166.977 145.305 164.045 146.946 163.905 146.946 C 163.764 146.946 162.281 144.789 160.608 142.153 L 160.608 142.153 Z M 106.205 107.459 L 97.474 101.704 L 98.299 100.398 C 98.752 99.68 101.039 96.034 103.38 92.297 C 105.722 88.559 107.674 85.457 107.719 85.403 C 107.764 85.352 111.696 87.869 116.458 91.004 L 125.116 96.703 L 123.828 98.803 C 123.119 99.957 120.987 103.448 119.089 106.559 C 117.192 109.671 115.481 112.441 115.287 112.716 C 114.984 113.147 113.738 112.426 106.205 107.459 L 106.205 107.459 Z M 117.348 88.772 C 112.823 85.817 109.121 83.259 109.121 83.087 C 109.121 81.841 112.862 78.372 114.705 77.909 C 117.738 77.149 122.713 79.094 125.484 82.126 C 127.626 84.469 128.095 85.615 127.895 88.015 C 127.744 89.826 126.268 94.145 125.8 94.145 C 125.676 94.145 121.872 91.727 117.348 88.772 L 117.348 88.772 Z"/>
  <g filter="url(#AQiGgG0y6PQ2YUyV7RXDO1CJQuDtdTYY)">
   <path fill="#888888" d="M 155.479 163.245 L 163.959 154.755 L 175.959 166.755 L 167.479 175.245 L 155.479 163.245 Z"/>
   <path fill="#3B3B3B" d="M 162.059 172.655 L 173.379 161.345 L 204.879 192.845 L 193.559 204.155 L 162.059 172.655 Z"/>
   <path fill="#FFFFFF" fill-opacity=".543" d="M 55.943 115 C 55.943 81.923 82.798 55.068 115.875 55.068 C 148.952 55.068 175.807 81.923 175.807 115 C 175.807 148.078 148.952 174.933 115.875 174.933 C 82.798 174.933 55.943 148.078 55.943 115 Z"/>
   <path fill="#666666" fill-rule="evenodd" d="M 51.879 115.005 C 51.869 106.445 53.579 97.975 56.909 90.095 C 60.129 82.495 64.789 75.585 70.629 69.755 C 76.459 63.915 83.369 59.255 90.969 56.035 C 98.849 52.705 107.319 50.995 115.879 51.005 C 124.429 50.995 132.899 52.705 140.779 56.035 C 148.379 59.255 155.289 63.915 161.119 69.755 C 166.959 75.585 171.619 82.495 174.839 90.095 C 178.169 97.975 179.879 106.445 179.879 115.005 C 179.879 123.555 178.169 132.025 174.839 139.905 C 171.619 147.505 166.959 154.415 161.119 160.245 C 155.289 166.085 148.379 170.745 140.779 173.965 C 132.899 177.295 124.429 179.005 115.879 179.005 C 107.319 179.005 98.849 177.295 90.969 173.965 C 83.369 170.745 76.459 166.085 70.629 160.245 C 64.789 154.415 60.129 147.505 56.909 139.905 C 53.579 132.025 51.869 123.555 51.879 115.005 Z M 60.009 115.005 C 60.009 107.535 61.499 100.145 64.399 93.265 C 67.219 86.635 71.279 80.605 76.379 75.505 C 81.479 70.405 87.509 66.345 94.139 63.525 C 101.019 60.625 108.409 59.135 115.879 59.135 C 123.339 59.135 130.729 60.625 137.609 63.525 C 144.249 66.345 150.279 70.405 155.369 75.505 C 160.469 80.605 164.539 86.635 167.349 93.265 C 170.249 100.145 171.749 107.535 171.739 115.005 C 171.749 122.465 170.249 129.855 167.349 136.735 C 164.539 143.375 160.469 149.405 155.369 154.495 C 150.279 159.595 144.249 163.665 137.609 166.475 C 130.729 169.375 123.339 170.875 115.879 170.865 C 108.409 170.875 101.019 169.375 94.139 166.475 C 87.509 163.665 81.479 159.595 76.379 154.495 C 71.279 149.405 67.219 143.375 64.399 136.735 C 61.499 129.855 60.009 122.465 60.009 115.005 Z"/>
  </g>
  <defs>
   <filter id="AQiGgG0y6PQ2YUyV7RXDO1CJQuDtdTYY" width="213" height="213.15" x="21.88" y="25" filterUnits="userSpaceOnUse">
    <feGaussianBlur xmlns="http://www.w3.org/2000/svg" in="SourceGraphic" stdDeviation="4.294"/>
    <feOffset xmlns="http://www.w3.org/2000/svg" dx="0" dy="4" result="pf_100_offsetBlur"/>
    <feFlood xmlns="http://www.w3.org/2000/svg" flood-opacity=".4"/>
    <feComposite xmlns="http://www.w3.org/2000/svg" in2="pf_100_offsetBlur" operator="in" result="pf_100_dropShadow"/>
    <feBlend xmlns="http://www.w3.org/2000/svg" in="SourceGraphic" in2="pf_100_dropShadow" mode="normal"/>
   </filter>
  </defs>
 </g>
</svg>
